X:1
T:Fugue in G Minor
T:From Fastasia and Fugue in G Minor, BWV 542
T:J. S. Bach
T:Arranged for piano by Franz Liszt
%%score { ( 1 3 5 ) | ( 2 4 6 ) }
L:1/8
Q:1/4=92
M:4/4
K:Bb
V:1 treble nm="Piano"
V:3 treble 
V:5 treble 
V:2 bass 
V:4 bass 
V:6 bass 
V:1
"^Allegro" z2 z!p! .d B/c/A/B/ .G.g | ^f/g/=e/f/ .dg/d/ ._e.c.=F.=f | d/e/c/d/ .Be/B/ .c.A.D.d | %3
 B/c/A/B/ G/A/B/c/ .d.=e f/g/f/g/ | .a.=e f4 =e2- | e2 d4 ^c2 | d2 z d =c/d/B/c/ A/B/c/d/ | %7
 B/c/A/B/ G/A/B/c/ A/B/G/A/!<(! ^F/A/G/B/ | A/!p!c/B/d/ c/_e/!<)!d/=f/ =e/!p!^f/g- g/g/=f | %9
 g2 z .b .a.g.^f.g | c/d/_e- e/e/d/c/ B/c/d- d/d/c/B/ | A/B/c- c/c/B/A/!<(! G!mp!.d g2 | %12
 g!mp!.f b2-!<)! ba- ag- | g.g ^f2 g2 z!mf! d/=e/ | .f.g.a.b a2- a/g/f/=e/ | d2 x =e f2- f/f/g/a/ | %16
 b/a/g/f/ =e>d d2 z/ [Fd]/[_Ec]/[Fd]/ | %17
 [DB]/[Ec]/!mf![CA]/[DB]/ .[B,G].[DB] [EGc]2 z/ [Ec]/[DB]/[Ec]/ | %18
 [CA]/[DB]/[B,G]/[CA]/ .[A,F][CA] [DFB]2 z/ [DB]/[CA]/[DB]/ | G2- G/B/A/B/ c2 c/B/c/A/ | %20
 B/d/G/B/ A/c/^F/A/ .G.B.C.[Ad] | B/c/A/B/ .G.g ^f/g/=e/f/!f! .dg/d/ | ._e.c.F.f d/e/c/d/ .Be/B/ | %23
 .c.A.D.d B/c/A/B/ G/A/=B/^c/ | .d.=e f/g/f/g/ .a.e!f! f2- | f2 =e4 d2- | d2 ^c2 d2 z!p! d | %27
 c2 f2 B2 z/ g/^f/g/ |!mp! .A.e d/c/B/A/ .G.A B/c/B/c/ | d2 z/ d/e/d/ c/d/e- e/e/d/c/ | %30
 B/c/d- d/d/c/B/ A/B/c- c/c/B/A/ | %31
!<(! .B.c d/!f!=e/d/!<)!e/!f! Tf/4g/4f/4g/4f/4g/4f/4g/4f/4g/4f/4g/4f/4g/4f/4g/4 | %32
 f/4g/4f/4g/4f/4g/4f/4g/4f/4g/4f/4g/4f/4g/4f/4g/4 f/g/e/f/ d/e/f/g/ | e4- e/f/d/e/ c/d/e/f/ | %34
 d4- d/e/c/!ff!d/ B/A/G/B/ | A/B/G/A/ B/d/c/d/4e/4!ff! d/c/B/c/ A/c/B/A/ | %36
!p! .B.c d/e/d/e/ c/d/B/c/ Ad | d2 c4 B2- | B2 A2 z .F.B.B |!p! A2 .B.=B .c.G.c.c | %40
 ._B.=B.c.^c .d.A.d.d |!f! ^c2 d4 c2 |!p! .d.f.G.=e F/A/.d ^c/e/.a | %43
 f/g/=e/f/ d/f/e/d/ ^c/d/=B/c/ Ad/A/ | ._B.G.C.c A/B/G/A/ .FB/F/ | %45
 .G.=E.A,.A!p! F/G/E/F/ D/F/A/d/ | ^c/d/=B/c/ A/c/=e/g/ f/g/e/f/ d/f/a/=c'/ | %47
 _b/c'/a/b/ g/a/f/g/ =e/f/d/e/ c/e/g/b/ | a/b/g/a/ f/g/=e/f/ d/e/c/d/ B/d/f/a/ | %49
 g/a/f/g/ =e/f/d/e/ ^c/d/=B/c/ A/c/e/a/ |!f! d/f/A/d/ F/A/D/=B/ A/^c/=e/g/ f/a/d/f/ | %51
 G/B/d/f/ =e/g/c/e/ F/A/c/e/ d/f/B/d/ | =E/G/B/d/ ^c/=e/A/c/ d/f/A/d/ F/!mf!A/D/A/ | %53
 B/c/A/B/ .G.B c/=e/G/c/ =E/G/!f!C/[EG]/ | .A.B.c.d .G.g- g/f/c/a/ | %55
!ped! b/c/!ped-up!d-!ped! d/d/!ped-up!c/B/ a/!ped!B/c-!ped-up! c/c/B/A/ | %56
 g/A/B- B/B/A/G/!mf! F2 z2 | z!f! .[Cc].[Ff].[=EB=e] [Ff]/_e/d/f/ e/c/=B/d/ | %58
 c2 x2 .[Cc] .[Gg].[cc'].[=Bf=b] | c'/_b/a/c'/ b/g/^f/a/ g dg^f | %60
 g/!ped!a/[c^f]/[ea]/!ped-up! [dg]/[ea]/[c=f]/[dg]/ [Be]/!ped![cf]/[Ad]/!ped-up![Bf]/ [Be]/!ped![cf]/[Ad]/!ped-up![Be]/ | %61
 [Gc]/!ped![Ad]/[FB]/!ped-up![Ad]/ [Gc]/!ped![Ad]/[FB]/!ped-up![Gd]/ [EA]/!ped![FB]/[DG]/!ped-up![FB]/ [EA]/!ped![FB]/[DG]/!ped-up![EB]/ | %62
 [C^F]/!ped![DG]/[B,=E]/!ped-up![C=F]/ .D!ped!.d!ped-up! B/c/A/B/ G.g | %63
 ^f/g/=e/f/ d/b/c/a/ B/c/A/B/ G/B/_e/G/ | ^F/A/d- d/c/B/A/ B/d/g g/^c/=e | %65
 [Ad]2 [Bb]2 [Bb]2 [Aa]2 | [Afa]2 [Gg]2 [Geg]2 [^F^f]2 | [GBg]!p! .d.g.^f .g .d.B.c | %68
 .d.d .d.d .d.e.f.g |!p! .e.g.c'.=b .c'.g.e.f |!p!!<(! .g.g.g.g g2 d/e/d/c/!<)! | %71
 =B/A/B/c/ d/c/!f! g e/f/d/e/ c[cgc'] | %72
 [=Bd=b]/[cec']/[Aca]/[Bdb]/ [Geg] c'/g/ .[ce_a].[_Acf].[F_B].[B_b] | %73
 g/_a/f/g/ .ea/e/ .[_Acf].[FAd] .[DG].[Gdg] | e/f/d/e/ c/e/d/c/ =B/c/A/B/ G/f/e/d/ | %75
 c/G/d/G/ e/G/f/G/ g/G/a/G/ =bg | %76
 Tg/4a/4g/4a/4g/4a/4g/4a/4g/4a/4g/4a/4g/4a/4g/4a/4g/4a/4g/4a/4g/4a/4g/4a/4g/4a/4g/4a/4g/4a/4g/4a/4 | %77
 g/e/f/g/ _a2- a/d/e/f/ g2- |!>(! g/b/_a/g/ f/e/d/e/ dfB!>)!!mf!d | e2- e/f/g/=a/ b4 | %80
 z/ e/f/g/ _a/g/f/a/ g4 | z/ c/d/e/ f/e/d/f/ .B!p!.d.e z | z .B.e.d .e.[df] [eg] x | %83
 G/B/=A/c/ B/d/c/e/ z .f.b.a |!p!!<(! b2 x2 d/e/c/d/ B/d/c/e/ | d/f/=e/g/ f/_a/g/!<)!b/!ff! c'4 | %86
!ff! c'2 b_a!ff! b4 |!ff!!f! b2 _ag!ff! a4 |!ff! _a2 gf!p! e/f/!p!d/e/ c/e/d/f/ | %89
!p!!<(! e/f/d/e/ .c/e/d/f/ e/f/d/e/ c/e/d/f/ | =e/g/^F/a/ G/b/A/!<)!c'/!f! b/c'/!p!a/b/ g/b/a/c'/ | %91
 b/!mp!c'/a/b/ g/b/a/c'/ b/c'/a/b/ g/!mf!b/a/c'/ | b/c'/b/a/ g/b/[ca]/[Bg]/!f! [Ad^f][Ad] z .d | %93
 B/c/A/B/ .G.g ^f/g/=e/f/ .dg/d/ |!>(! ._ecF.f d/e/c/d/ .Be/B/ | %95
 .c.A.D!>)!.d!p! B/c/A/B/ G/B/A/G/ |!<(! ^F/G/=E/F/ D/F/A/c/ B/c/A/B/ G/B/d/!<)!!mf!=f/ | %97
!mf!!>(! _e/f/d/e/ c/d/B/c/ A/B/G/!>)!!p!A/!<(! F/A/c/!<)!!mf!e/ | %98
!mf! d/e/c/d/ B/c/A/B/ G/A/F/!p!G/!p!!<(! E/G/B/d/!<)! | c/d/B/c/ A/B/G/A/ ^F/G/=E/F/ D/F/A/d/ | %100
 G/B/d/g/ B/d/G/B/ D/^F/A/c/ B/d/G/B/ | C/E/G/B/ A/c/F/A/ B,/D/F/A/ G/B/E/G/ | %102
 A,/C/=E/G/ ^F/A/D/F/ .G.A B/c/!mf!B/c/ | d2 z!f! B c/d/e- e/e/d/c/ | %104
 B/c/d- d/d/c/B/ A/B/c- c/c/B/A/ | .G.A.B.c d4- | d/!p!e/c/d/ B/c/d/e/ c4- | %107
 c/d/B/c/ A/B/c/d/ B4- | B/c/A/c/ G/B/A/G/ ^F/G/=E/F/ G/B/A/c/ | %109
 B/A/G/A/[Q:1/4=72]"_rit." ^F/4G/4F/4=E/4!f!F/G/[Q:1/4=92]"^a tempo" [G,DG]2 z .[_EGBe] | %110
 [DAd]2 z .[DBd] g/=f/e/d/ [EGc][FAd]/[GBe]/ | %111
 f/g/e/f/ [DAd]!f![B,B] e/d/c/B/ [CEA][D^FB]/[=EGc]/ | d/e/c/e/ B^f [Gdg][C=Fc][DGB][^Fcef] | %113
 [Gdg][C^Fc][DGB][Fce^f][Q:1/4=82]"_ritard" [Gdg][Aca][Q:1/4=72][DBd][FAcdf] | %114
!ff! !fermata![G=Bdg]8 |] %115
V:2
 z8 | z8 | z8 | z8 | z8 | z8 | z8 | z8 | z4 z2 z!mp! D | B,/C/A,/B,/ .G,.G ^F/G/=E/F/ .DG/D/ | %10
 ._E.C.F,.F D/E/C/D/ .B,E/B,/ | .C.A,.D,.D B,/C/A,/B,/ G,/A,/B,/C/ | %12
 D/E/C/D/ B,/C/D/E/ F/G/E/F/ D/F/E/D/ | C/D/B,/C/ A,/B,/C/D/ B,/C/A,/B,/ G,/A,/B,/C/ | %14
 D=E F/G/F/G/ .F.=E F2 | F2 x2 =E2 D2 | [D=E]2 ^C2 D2 x2 | %17
 G,2 z/ G,,/F,,/G,,/ E,,/F,,/D,,/E,,/ .C,,.E,, | F,,2 z/ F,/E,/F,/ D,/E,/C,/D,/ .B,,.D, | %19
 .E,.D,"^cresc. sempre".C,.B,, .A,,.G,,.^F,,.D,, | %20
 .G,,.[B,,,B,,].[C,,C,].[D,,D,] G,,2 A,/C/^F,/A,/ | G,3 .E .D.C.B,.G, | %22
 C/D/E- E/E/D/C/ B,/C/D- D/D/C/B,/ | A,/B,/C- C/C/B,/A,/ G,A, B,A,/G,/ | %24
 A,2- A,.D, .=E,.A,!f!.D,"^dim.".F, | G,/A,/B, B,/B,/A,/G,/ F,/G,/A, A,/A,/G,/F,/ | %26
 =E,/F,/G,- G,/G,/F,/E,/ .D,.F,!p! B,2- | B,2 A,4"^cresc." G,2 | C/D/B,/C/ z!mf! .D, G,2 x2 | %29
 A,/B,/G,/A,/ B,4 A,2- | A,2 G,4 ^F,2 | .G,.A, B,/C/B,/C/ A,/B,/G,/A,/ B,/C/D/E/ | %32
 C/D/B,/C/ A,/B,/C/A,/ B,4 | B,/C/A,/B,/ G,/A,/B,/C/ A,4 | %34
 A,/B,/G,/B,/ F,/G,/A,/F,/ B,"^cresc."[I:staff -1]CD=E | %35
[I:staff +1] .F,,.F,.G,.A,!ff!!>(! .B,.E,.F,!p!F,,!>)! | %36
!p! D,/E,/C,/D,/ .B,,.B, A,/B,/G,/A,/ .F,B,/F,/ | .G,.E,.A,,.A, F,/G,/E,/F,/ .D,G,/D,/ | %38
 .E,.C,.F,,.F, D,/E,/C,/D,/ B,,/C,/D,/E,/ | %39
!p! F,/!<(!G,/E,/F,/ D,/E,/F,/G,/ C,/D,/B,,/C,/ A,,/B,,/C,/D,/ | %40
 G,,/A,,/F,,/G,,/ =E,,/F,,/G,,/A,,/ D,,/D,/=C,/D,/ =B,,/C,/D,/!<)!=E,/ | %41
!f! .A,,.A,!>(!.B,.D, .=E,.G,.A,.A,,!>)! |!p! D, z z2 z4 | %43
 z2 F,/A,/D,/F,/ A,,/^C,/=E,/G,/ F,/A,/D,/F,/ | %44
 G,,/_B,,/D,/F,/ =E,/G,/C,/E,/ F,,/A,,/C,/E,/ D,/F,/B,,/D,/ | %45
 =E,,/G,,/B,,/D,/ ^C,/=E,/A,,/=C,/"^poco a poco crescendo (to measure 51)" .D,,.E,,.F,,.D,, | %46
 .A,,.=B,,.^C,.A,, .D,.=E,.F,.D, | .G,.A,.B,.G, .C.D.=E.C |[K:treble] .F.G.A.F B/c/A/B/ G/A/F/G/ | %49
 =E/F/D/E/ ^C/D/=B,/=C/[K:bass] A,/_B,/G,/A,/ F,/G,/=E,/G,/ | %50
 F,/G,/=E,/F,/ .D,.D ^C/D/=B,/C/ .A,D/A,/ | ._B,.G,.C,.C A,/B,/G,/A,/ .F,B,/F,/ | %52
 .G,.=E,.A,,.A, F,/G,/E,/F,/ D,F, | G,/B,/D,/G,/ B,,/D,/G,,/D,/ =E,/F,/D,/E,/ C, x | %54
 A,,/B,,/G,,/A,,/ .F,,.F, =E,/F,/D,/E,/ .C, [F,F]/[C,C]/ | %55
 [D,D].[B,,B,].[=E,,=E,][E,=E] [C,C]/[D,D]/[B,,B,]/[C,C]/ .[A,,A,][D,D]/[A,,A,]/ | %56
 .[B,,B,].[G,,G,].[C,,C,].[C,C] x2 F,=E, | F, x x2 x G,G,G, | G, x x2 x4 | x DDD D DDD | %60
 [B,D][K:treble] A/c/ B/c/A/B/ G/A/^F/A/ G/A/=F/G/ | E/F/D/F/ E/F/D/E/ C/D/B,/D/ C/D/B,/C/ | %62
[K:bass] A,/B,/G,/B,/ F,D, G,D,/G,/ B,,/D,/G,,/C,/ | %63
!ff! D,/!f!A,,/=E,/A,,/ ^F,/G,/_E,/F,/ G,/D,/A,/D,/ B,/D,/C | z2 z!ff! .D B,/C/A,/B,/ G, x | %65
 [D,,D,][^F,,^F,][G,,G,][B,,B,] [C,C][E,E][=F,=F][A,,A,] | %66
 [B,,B,][D,D][E,E][G,,G,] [A,,A,][C,C][D,D][D,,D,] | %67
!ff! z/!pp!"^scherzando" C/A,/B,/ G,/B,/A,/C/ B,/C/A,/B,/ G,/B,/A,/C/ | %68
 B,/C/A,/B,/ G,/B,/A,/C/ B,/D/C/E/ D/F/E/D/ | C/D/=B,/D/ C/E/D/F/ E/F/D/E/ C/E/D/F/ | %70
!p! E/F/D/E/ C/E/D/F/ E/D/E/G/ x2 | .G,.D,.=B,,!f!.G,,!ff! [C,C][G,,G,][E,,E,][C,,C,] | %72
!f! [G,,G,] [G,G][C,C][E,E] E2 D2 | x2 C2 x2 =B,2 | %74
 C,/G,,/D,/G,,/ E,/G,,/F,/G,,/ G,/G,,/A,/G,,/ =B,/G,,/G,/G,,/ | %75
[I:staff -1] E/[I:staff +1]F/D/E/ C/E/D/C/ =B,/C/A,/B,/ G,/B,/A,/B,/ | %76
 C/G,/D/G,/ E/G,/F/C/[K:treble] G/D/A/D/ =B/G/A/B/ |[K:bass] .E,.C,.F,.E, .D,.B,,.E,.D, | %78
 .C,.B,,.C,._A,, B,,2 z .B, | E/F/D/E/ .C.F B,/C/_A,/B,/ G,2 | G,2 F,4!mp! E,2 | %81
 E,2 D,2 .E,.[B,,F,].[E,G,].[D,B,] | .[E,B,] z z2 z!mp! [B,,,B,,][E,,E,][D,,D,] | %83
 [E,,E,]!mf![F,,F,][G,,G,][A,,A,]!f! [B,,B,] z z2 | z!p! F,B,A, B, [F,,F,][B,,B,][A,,A,] | %85
 [B,,B,][C,C][D,D][=E,=E]!ff! F[K:treble]!f!G_AF | z/!f! c/_A/B/ G/A/F/G/ .E.F.G.E | %87
 z/ B/G/_A/ F/G/E/F/[K:bass] ._D.E.F.D |!ff! G=DE=B,!p! .C!p!.G,.C.B, | %89
!p! C2 z .[G,,G,] .[C,,C,].[G,,G,].[C,C].[=B,,=B,] | %90
 .[C,C].[D,D].[=E,=E].[^F,D^F]!f! [G,DG] .D.G.[F,F] | %91
 [G,G]2 z [D,,D,] [G,,G,]!mf![D,,D,][G,,G,][^F,,^F,] | %92
 [G,,G,][A,,A,][B,,B,][C,C] z/ G/^F/=E/ D/C/B,/A,/ | %93
 G,/=F,/_E,/D,/ C,/B,,/A,,/G,,/ D,D,, z/ G,/A,/B,/ | %94
!f! C,/E,/G,/B,/ A,/C/F,/A,/ B,,/D,/F,/A,/ G,/B,/E,/G,/ | %95
 A,,/C,/E,/G,/ ^F,/A,/D,/F,/ G,,A,,B,,G,, |!p! D,=E,^F,D, G,A,B,G, | CDEC F,G,!p!A,F, | %98
!>(! B,CDB, E/F/D/!>)!E/ C/D/B,/!mf!C/ | %99
!mf!!>(! A,/B,/G,/A,/ ^F,/G,/=E,/F,/ D,/_E,/C,/!>)!!p!D,/!p!!<(! B,,/C,/A,,/!<)!B,,/ | %100
!f! B,,/C,/A,,/B,,/ .G,,.G, ^F,/G,/=E,/F,/ .D,G,/D,/ | ._E,.C,.F,,.F, D,/E,/C,/D,/ .B,,E,/B,,/ | %102
 C,A,,D,,!mp!D,"^cresc." B,/C/A,/B,/ x2 | D,2 B,4 A,2- | A,2 G,4 D,2 | %105
 G,2 G,/B,/!mf!A,/G,/ ^F,/G,/!mp!F,/=E,/ D,/!p! D/C/D/ | %106
"^crescendo" B,/C/A,/B,/ G,/A,/F,/G,/ E,/F,/D,/E,/ C,/C/B,/C/ | %107
 A,/B,/G,/A,/ F,/G,/E,/F,/ D,/E,/C,/D,/ B,,/B,/A,/B,/ | %108
"^cresc. sempre" G,/A,/^F,/G,/ .=E,.A, D,2 .=F,.^F, | %109
 .G,.C, A,!f! .[D,,D,] [B,,,B,,]/[C,,C,]/[A,,,A,,]/[B,,,B,,]/ [G,,,G,,].[G,,G,] | %110
 [^F,,^F,]/[G,,G,]/[=E,,=E,]/[F,,F,]/ .[D,,D,][G,,G,]/[D,,D,]/ [_E,,_E,][C,,C,][F,,,=F,,][F,,=F,] | %111
 [D,,D,]/[E,,E,]/[C,,C,]/[D,,D,]/ [B,,,B,,]"^crescendo"!f![E,,E,]/[B,,,B,,]/ [C,,C,][A,,,A,,][D,,,D,,][D,,D,] | %112
 [B,,,B,,]/[C,,C,]/[A,,,A,,]/[B,,,B,,]/ [G,,,G,,]/[B,,,B,,]/[A,,,A,,]/[C,,C,]/ [B,,,B,,]/[C,,C,]/[A,,,A,,]/[B,,,B,,]/ [G,,,G,,]/[B,,,B,,]/[A,,,A,,]/[C,,C,]/ | %113
 [B,,,B,,]/[C,,C,]/[A,,,A,,]/[B,,,B,,]/ [G,,,G,,]/[B,,,B,,]/[A,,,A,,]/[C,,C,]/ [B,,,B,,]/[D,,D,]/[C,,C,]/[E,,E,]/ [D,,D,][D,^F,A,D] | %114
 !fermata![G,,=B,,D,G,]8 |] %115
V:3
 x8 | x8 | x8 | z2 z G F/G/=E/F/ .D.d | ^c/d/=B/c/ .Ad/A/ ._B.G.=C.=c | A/B/G/A/ .FB/F/ G.=E.A,.A | %6
 F/G/=E/F/ D/E/F/G/ .A.G.^F.D | .G.F ._E.D .C.E.D.=E | .^F.G.A.B c>B A>A | .G.A B/c/B/c/ .d.A B2- | %10
 B2 A4 G2- | G2 ^F2 G2 z d | A2 z f c2 B2 | A3 .A .G.A B2 | A^cdf .=e.d .^c.d | %15
 G/A/B B/B/A/G/ F/G/A- AG/[I:staff +1]F/ |[I:staff -1] x G- G/G/F/=E/ x4 | x8 | x8 | %19
 B,/D/C/D/ E2- E/!mf!G/^F/G/ A/G/A/=F/ | GD C/E/A,/C/ B,/D/[I:staff +1]G,/B,/[I:staff -1] x2 | %21
 B,C D/d/c/e/ A^F G2 | G2 z A B2 z2 | z4 z2 z G | F/G/=E/F/ .D.c ^c/d/=B/c/ .Ad/A/ | %25
 ._B.G.C.c A/B/G/A/ .FB/F/ | .G.=E.A,.A F/G/E/F/ D/E/F/G/ | _E/F/D/E/ C/D/E/F/ D/E/C/D/ B,/C/D/E/ | %28
 z2[I:staff +1] A,[I:staff -1]D- D/E/C/D/ B,/E/D/E/ | x8 | x8 | x8 | x8 | x8 | x8 | %35
 F4 F/E/D/E/ C>D | DE x2 x2 z F | E/F/G- G/G/F/E/ D/E/F- F/F/E/D/ | C/D/E E/E/D/C/ B,2 z2 | %39
 z .C.F.F .E.=E.F.^F | .G.D.G.G .F.^F.G.^G | A/_B/=G/A/ =F/G/A/B/ G/A/F/G/ =E/F/G/A/ | %42
 F/A/D/F/ =E/G/^C/E/ D/F/A,/D/ E/G/A,/C/ | D/F/A,/D/ x2 x4 | x8 | x8 | x8 | x8 | x8 | x8 | x8 | %51
 x8 | x8 | x8 | FG A/B/A/B/ c/d/B/c/ AA | A2 G2 G2 F2 | F2 =E2 z .C.F.E | F x x2 c GGG | %58
 G .G.[Cc].[=B,=B] x4 | [cg] ddd d c[GB][^Fc] | [Gd] x x2 x4 | x8 | %62
 x2 A,/C/[I:staff +1]^F,/A,/[I:staff -1] D2 x G | ^FGAA DCDE | D>=E ^FF G>A B[GB] | %65
 ^F/G/=E/F/ dg/d/ _e/f/e/d/ c/e/d/c/ | d/e/d/c/ Be/B/ c/d/c/B/ A/c/B/A/ | x4 x DG^F | %68
 G^F B/G/A/D/ GGG=B | G2 z2 z Gc=B | %70
 c=B e/c/d/G/ c/B/c/e/ _A/[I:staff +1]G/[I:staff -1]F/[I:staff +1]E/ | %71
[I:staff -1] D/[I:staff +1]C/[I:staff -1]D/[I:staff +1]E/[I:staff -1] F/[I:staff +1]D/[I:staff -1] z/[I:staff +1] G,/[I:staff -1] G/c/=B G/g/f/e/ | %72
 x3 c x4 | [Bd][Bd] [E_A]A x4 | G2 z/ G/F/E/ D2- D/_A/G/F/ | x8 | x8 | %77
 c2- c/[I:staff +1]F/[I:staff -1]G/_A/ B2- B/[I:staff +1]E/[I:staff -1]F/G/ | %78
 _A2 A2- A/c/B/A/ G/A/F/G/ | G/_A/F/G/ .E.e d/e/c/d/ .Be/B/ | %80
 .c._A[I:staff +1].D[I:staff -1].d B/c/A/B/ .Gc/G/ | %81
 ._A.F[I:staff +1].B,[I:staff -1].A G/A/F/G/ E/G/F/A/ | G/_A/F/G/ E/G/F/A/ G/A/F/B/ x B, | %83
 B,EDF [Fd]/!p!e/c/d/ B/d/c/e/ | d/e/c/d/ B/d/c/e/ x [FA]DF | [FB]B B2 _a/!f!b/g/a/ f/g/=e/f/ | %86
 _d4 g/!f!_a/f/g/ e/f/d/e/ | c4 f/!f!g/e/f/ _d/e/c/d/ | =B2 cd G2 z G | .G.Gc.[G=B] [Gc][FB]EG | %90
 G x x2 B x d x | .d.d.g.[d^f] [dg][cf]Bd | d2 x e x4 | x8 | x8 | x8 | x8 | x8 | x8 | x8 | x8 | %101
 x8 | z2 z D x2[I:staff +1] .G,[I:staff -1].G | %103
 ^F/G/=E/F/ .DG/D/ ._E.C[I:staff +1].=F,[I:staff -1].=F | %104
 D/E/C/D/ .B,E/B,/ .C[I:staff +1].A, .^F,[I:staff -1]D/C/ | %105
 B,/C/B,/[I:staff +1]A,/[I:staff -1] x4 x!p! ^F | G4- G/A/F/G/ E/F/G/A/ | F4- F/G/E/F/ D/=E/^F/G/ | %108
 ^C4 D=CB,D | D/[I:staff +1]C/B,/C/[I:staff -1] x A, x4 | x4 [GB]2 x2 | [FA]2 x G/^F/ [EG]2 x2 | %112
 [D^F]2 [DG][Fce] x4 | x8 | x8 |] %115
V:4
 x8 | x8 | x8 | x8 | x8 | x8 | x8 | x8 | x8 | x8 | x8 | x8 | x8 | z4 z2 z .G, | %14
 F,/G,/=E,/F,/ .D,.D ^C/D/=B,/=C/ A,D/A,/ | .B,.G,.C,.C A,/B,/G,/A,/ .F,B,/F,/ | %16
 .G,.=E,.A,,.A, F,/G,/E,/F,/ .D,"^cresc.".F, | x8 | x8 | x8 | x4 x2 x D, | %21
 .G,,.A,,.B,,.C, .D,.A,, B,,2 | B,2 A,4 G,2 | G,2 ^F,2 .G,.=F,.=E,.E, | .D,.C, B,,2 A,,2 z2 | z8 | %26
 z8 | x6 G,2- | G,2 ^F,2 B,,/C,/A,,/B,,/ .G,,.G, | ^F,/G,/=E,/F,/ D,G,/D,/ ._E,.C,.=F,,.=F, | %30
 D,/E,/C,/D,/ .B,,E,/B,,/ .C,.A,, .D,,.D, | B,,/C,/A,,/B,,/ .G,,.G, F,/G,/E,/F,/ .D,.B, | %32
 A,/B,/G,/A,/ F,/G,/E,/F,/ D,/E,/C,/D,/ B,,/B,/A,/B,/ | %33
 G,/A,/F,/G,/ E,/F,/D,/E,/ C,/D,/B,,/C,/ A,,/A,/G,/A,/ | %34
 F,/G,/E,/F,/ D,/E,/C,/D,/ B,,/C,/A,,/B,,/ G,,/C,/B,,/C,/ | x8 | B,,2 z2 z4 | z8 | z8 | z8 | z8 | %41
 z8 | z8 | z8 | z8 | z8 | z8 | z8 |[K:treble] z8 | z8[K:bass] | z8 | z8 | z8 | z4 z2 z .C, | x8 | %55
 x8 | x4 A,,/B,,/G,,/A,,/ F,,/A,,/G,,/B,,/ | %57
 A,,/B,,/G,,/A,,/ F,,/A,,/G,,/B,,/ A,,/C,/=B,,/D,/ C,/E,/D,/F,/ | %58
 E,/F,/D,/E,/ C,/E,/D,/F,/ E,/F,/D,/E,/ C,/E,/D,/F,/ | %59
 =E,/G,/^F,/A,/ G,/B,/A,/C/ B,/C/A,/B,/ G,/B,/A,/C/ | x[K:treble] x7 | x8 | %62
[K:bass] x4 G,,F,,_E,,E,, | D,,8 | [D,,D,]4- [D,,D,]7/2 [^C,,^C,]/ | x8 | x8 | %67
 [G,,G,]2 z .D, .G,2 z .D, | .G,.D,.G,.F, .G,.E,.=B,.G, | .C,2 z .G, .C2 z .G, | %70
 .C.G,.C.B, .C._A,.F,.D, | x8 | x4 F,/C,/_A,- A,/B,,/D,/B,,/ | %73
 E,/B,,/G,- G,/_A,,/C,/A,,/ D,/A,,/F,- F,/G,,/=B,,/G,,/ | x8 | C2 z4 G,F, | %76
 E,D,C,C,[K:treble] =B,A, G,2 |[K:bass] x8 | x8 | x8 | x8 | x8 | x8 | x8 | x8 | %85
 x4 F,2[K:treble] x2 | B,C_DB, E, x x2 | _A,B,CA,[K:bass] _D, z z2 | %88
 G,/!>(!_A,/F,/G,/ E,/F,/D,/E,/!>)! C,2 z G,, | C,2 x2 x4 | x8 | x8 | x4 [D,D] x x2 | x8 | x8 | %95
 x8 | x8 | x8 | x8 | x8 | x8 | x8 | z4 G,=F, _E,2 | x8 | x8 | x8 | x8 | x8 | x8 | x8 | x8 | x8 | %112
 x8 | x8 | x8 |] %115
V:5
 x8 | x8 | x8 | x8 | x8 | x8 | x8 | x8 | x8 | x8 | x8 | x8 | x8 | x8 | x8 | x2 =E2 x4 | x8 | x8 | %18
 x8 | x8 | x8 | x8 | x8 | x8 | x8 | x8 | x8 | x8 | x8 | x8 | x8 | x8 | x8 | x8 | x8 | x8 | x8 | %37
 x8 | x8 | x8 | x8 | x8 | x8 | x8 | x8 | x8 | x8 | x8 | x8 | x8 | x8 | x8 | x8 | x8 | x8 | x8 | %56
 x8 | x8 | x8 | x8 | x8 | x8 | x8 | x8 | x8 | x8 | x8 | x8 | x8 | x8 | x8 | x2 x d/=B/ x4 | x8 | %73
 x8 | x8 | x8 | x8 | x8 | x8 | x8 | x8 | x8 | x6 G/B/F/=A/ | x8 | x8 | x8 | x8 | x8 | x8 | x8 | %90
 x8 | x8 | x8 | x8 | x8 | x8 | x8 | x8 | x8 | x8 | x8 | x8 | x8 | x8 | x8 | x8 | x8 | x8 | x8 | %109
 x8 | x8 | x8 | x8 | x8 | x8 |] %115
V:6
 x8 | x8 | x8 | x8 | x8 | x8 | x8 | x8 | x8 | x8 | x8 | x8 | x8 | x8 | x8 | x8 | x8 | x8 | x8 | %19
 x8 | x8 | x8 | x8 | x8 | x8 | x8 | x8 | x8 | x8 | x8 | x8 | x8 | x8 | x8 | x8 | x4 x2 x .F, | x8 | %37
 x8 | x8 | x8 | x8 | x8 | x8 | x8 | x8 | x8 | x8 | x8 |[K:treble] x8 | x4[K:bass] x4 | x8 | x8 | %52
 x8 | x8 | x8 | x8 | x8 | x8 | x8 | x8 | x[K:treble] x7 | x8 |[K:bass] x8 | x8 | x8 | x8 | x8 | %67
 x8 | x8 | x8 | x8 | x8 | x8 | x8 | x8 | x8 | x15/4[K:treble] x17/4 |[K:bass] x8 | x8 | x8 | x8 | %81
 x8 | x8 | x8 | x8 | x5[K:treble] x3 | x8 | x4[K:bass] x4 | x8 | x8 | x8 | x8 | x8 | x8 | x8 | x8 | %96
 x8 | x8 | x8 | x8 | x8 | x8 | x8 | x8 | x8 | x8 | x8 | x8 | x8 | x8 | x8 | x8 | x8 | x8 | x8 |] %115

